app/img/bag.svg

<svg width="92" height="92" viewBox="0 0 92 92" fill="none" xmlns="http://www.w3.org/2000/svg">
<rect width="92" height="92" rx="24" fill="white"/>
<path d="M37.7339 42.125C38.8379 42.125 39.7339 41.229 39.7339 40.125V32.325C39.7339 28.838 42.5709 26 46.0579 26C49.5449 26 52.3829 28.838 52.3829 32.325V40.125C52.3829 41.229 53.2779 42.125 54.3829 42.125C55.4869 42.125 56.3829 41.229 56.3829 40.125V32.325C56.3839 26.632 51.7519 22 46.0579 22C40.3659 22 35.7339 26.632 35.7339 32.325V40.125C35.7339 41.229 36.6299 42.125 37.7339 42.125Z" fill="url(#paint0_linear_22728_12612)"/>
<path d="M69 37.6309H58.384V40.1249C58.384 42.3309 56.59 44.1249 54.384 44.1249C52.178 44.1249 50.384 42.3309 50.384 40.1249V37.6309H41.735V40.1249C41.735 42.3309 39.941 44.1249 37.735 44.1249C35.529 44.1249 33.735 42.3309 33.735 40.1249V37.6309H23C22.448 37.6309 22.107 38.0659 22.238 38.6019L29.236 67.0989C29.658 68.7009 31.344 69.9999 33 69.9999H59C60.658 69.9999 62.342 68.7009 62.766 67.0989L69.762 38.6019C69.893 38.0649 69.553 37.6309 69 37.6309Z" fill="url(#paint1_linear_22728_12612)"/>
<path d="M42.6001 48.4C42.6001 47.6265 43.2266 47 44.0001 47C44.7736 47 45.4001 47.6265 45.4001 48.4V55.35L45.4001 54C45.4001 53.2265 46.0266 52.6 46.8001 52.6C47.5736 52.6 48.2001 53.2265 48.2001 54V55.6764C48.2127 54.9141 48.8346 53.3 49.6 53.3C50.3731 53.3 50.9999 53.9268 51 54.7C51 54.7 51.0411 55.7411 51.1332 55.8033C51.3572 55.3285 51.8402 54 52.4 54C53.1732 54 53.8 54.6268 53.8 55.4V62.4C53.8 63.9463 52.5463 65.2 51 65.2H46.3198C44.8344 65.2 43.4099 64.6099 42.3599 63.5599L40.15 61.35L37 59.9402C37.0051 58.6033 38.0526 58.2 39.1 58.2C40.0023 58.2 40.8136 58.3407 42.6 59.25L42.6001 48.4Z" fill="white"/>
<defs>
<linearGradient id="paint0_linear_22728_12612" x1="46.0584" y1="22" x2="46.0584" y2="42.125" gradientUnits="userSpaceOnUse">
<stop stop-color="#EF8080"/>
<stop offset="1" stop-color="#F0145A"/>
</linearGradient>
<linearGradient id="paint1_linear_22728_12612" x1="46" y1="37.6309" x2="46" y2="69.9999" gradientUnits="userSpaceOnUse">
<stop stop-color="#EF8080"/>
<stop offset="1" stop-color="#F0145A"/>
</linearGradient>
</defs>
</svg>

<svg xmlns="http://www.w3.org/2000/svg" width="92" height="92" fill="none"><rect width="92" height="92" fill="#fff" rx="24"/><path fill="url(#a)" d="M37.734 42.125a2 2 0 0 0 2-2v-7.8A6.332 6.332 0 0 1 46.058 26a6.333 6.333 0 0 1 6.325 6.325v7.8a2 2 0 0 0 4 0v-7.8C56.383 26.632 51.752 22 46.058 22c-5.692 0-10.324 4.632-10.324 10.325v7.8a2 2 0 0 0 2 2Z"/><path fill="url(#b)" d="M69 37.63H58.384v2.495c0 2.206-1.794 4-4 4s-4-1.794-4-4V37.63h-8.649v2.494c0 2.206-1.794 4-4 4s-4-1.794-4-4V37.63H23c-.552 0-.893.435-.762.97L29.236 67.1c.422 1.602 2.108 2.9 3.764 2.9h26c1.658 0 3.342-1.298 3.766-2.9l6.996-28.497c.131-.537-.209-.971-.762-.971Z"/><path fill="#fff" d="M42.6 48.4a1.4 1.4 0 1 1 2.8 0v6.95V54a1.4 1.4 0 1 1 2.8 0v1.676c.013-.762.635-2.376 1.4-2.376a1.4 1.4 0 0 1 1.4 1.4s.041 1.041.133 1.103C51.357 55.33 51.84 54 52.4 54a1.4 1.4 0 0 1 1.4 1.4v7a2.8 2.8 0 0 1-2.8 2.8h-4.68a5.6 5.6 0 0 1-3.96-1.64l-2.21-2.21L37 59.94c.005-1.337 1.053-1.74 2.1-1.74.902 0 1.714.14 3.5 1.05V48.4Z"/><defs><linearGradient id="a" x1="46.058" x2="46.058" y1="22" y2="42.125" gradientUnits="userSpaceOnUse"><stop stop-color="#EF8080"/><stop offset="1" stop-color="#F0145A"/></linearGradient><linearGradient id="b" x1="46" x2="46" y1="37.631" y2="70" gradientUnits="userSpaceOnUse"><stop stop-color="#EF8080"/><stop offset="1" stop-color="#F0145A"/></linearGradient></defs></svg>
